svg/fluentui-system-icons/ic_fluent_database_warning_20_filled.svg

<svg width="20" height="20" viewBox="0 0 20 20" fill="none" xmlns="http://www.w3.org/2000/svg">
<path d="M16 5C16 6.65685 13.3137 8 10 8C6.68629 8 4 6.65685 4 5C4 3.34315 6.68629 2 10 2C13.3137 2 16 3.34315 16 5ZM14.6899 8.01575C14.794 7.96366 14.8976 7.90842 15 7.85004V8.06254C14.4729 8.19627 13.9931 8.54442 13.7122 9.10697L10.2174 16.1044C9.89578 16.7484 9.9564 17.4472 10.2731 17.9969C10.1826 17.999 10.0915 18 10 18C6.68629 18 4 16.6569 4 15V7.12029C4.38273 7.48234 4.8407 7.78102 5.31015 8.01575C6.56205 8.6417 8.22156 9 10 9C11.7784 9 13.4379 8.6417 14.6899 8.01575ZM14.6029 9.55356L11.1068 16.552C10.7744 17.2174 11.2583 18 12.0022 18H18.9978C19.7419 18 20.2258 17.2171 19.893 16.5517L16.3935 9.55322C16.0246 8.81544 14.9716 8.81564 14.6029 9.55356ZM15.9983 11.4951V14.4974C15.9983 14.7738 15.7743 14.9978 15.4979 14.9978C15.2215 14.9978 14.9975 14.7738 14.9975 14.4974V11.4951C14.9975 11.2187 15.2215 10.9947 15.4979 10.9947C15.7743 10.9947 15.9983 11.2187 15.9983 11.4951ZM15.4979 16.9993C15.2215 16.9993 14.9975 16.7753 14.9975 16.499C14.9975 16.2226 15.2215 15.9986 15.4979 15.9986C15.7743 15.9986 15.9983 16.2226 15.9983 16.499C15.9983 16.7753 15.7743 16.9993 15.4979 16.9993Z" fill="#212121"/>
</svg>

<svg xmlns="http://www.w3.org/2000/svg" width="20" height="20"><path d="M16 5c0 1.657-2.686 3-6 3S4 6.657 4 5s2.686-3 6-3 6 1.343 6 3Zm-1.31 3.016c.104-.052.208-.108.31-.166v.213a1.967 1.967 0 0 0-1.288 1.044l-3.495 6.997a1.983 1.983 0 0 0 .056 1.893c-.09.002-.181.003-.273.003-3.314 0-6-1.343-6-3V7.12c.383.362.84.661 1.31.896C6.562 8.642 8.222 9 10 9c1.778 0 3.438-.358 4.69-.984Zm-.087 1.538-3.496 6.998A1 1 0 0 0 12.002 18h6.996a1 1 0 0 0 .895-1.448l-3.5-6.999a1 1 0 0 0-1.79 0Zm1.395 1.941v3.002a.5.5 0 1 1-1 0v-3.002a.5.5 0 1 1 1 0Zm-.5 5.504a.5.5 0 1 1 0-1 .5.5 0 0 1 0 1Z"/></svg>
